!!!OTL: Flohhatz (288), S. 601
!!!id: T0478
**kern
*clefG2
*k[f#]
*G:
{16g
=1
16g
8g
8g
8a
8g
=2
8f#
8e
4d}
=3
{8g
8g
8a
8dd
=4
8b
8a
4g}
=5
{8g
8g
8a
8g
=6
8f#
8e
4d}
=7
{8g
8g
8a
8dd
=8
8b
8a
4g}
=9
{16g
16g
8g
8a
16g
16g
=10
8f#
8e
4d}
=11
{16e
16e
16e
16e
8g
8e
=12
8e
8d
8d}
=13
{8d
=14
16B
16B
16B
16B
8B
8d
=15
8g
16g
16g
4g}
=16
{16g
16g
16g
16g
8a
16cc
16cc
=17
8b
8a
8g}
=18
{16g
16f#
=19
16e
16e
16e
16e
8e
16g
16g
=20
16d
16d
16d
16d
8d}
8r
=21
{16g
16g
16g
16g
8a
16cc
16cc
=22
8b
8a
8g}
8r
==
*-
!!!minrhy: 16
!!!meters: 2/4 ]  ZZ[10
!!!cut: Flohhatz (288), S. 601
!!!reg: Luxemburg
!!!trd: Singendes Volk, Esch-Alzette, 1937 posth.
!!!rhy1:   X_X_X_X_  X_X_X__   (x2)
!!!rhy2: X_X_X_X_  X_X_X__
!!!key: T0478  16  G 2/4 ]  ZZ[10
!!!mod: HEPTATONIK IONISCH]  AMBITUS[10b
!!!kad: -51-51-5-511-51
!!!akz: 1-7_13_1-7_13_1-7_-6-6_-31_13_-6-5_13_
!!!fot: 'a__b__a__b__av_c__d__bv_e__bv_
!!!for: 'a__a__a__a__b__c__d__e__f__ev_
!!!fok: '\__^__\__^__\__^d_Va_^__\__^__
!! PHRAS[VORWIEGEND VOLLTAKTIG]
!!!fkt: ???
!!!bem: Junglinster, fff Bertrang, um 1890
!! THILL; Mathias
!! PR[44] 2K[4] 2G[6] 3K[1] 3G[0] 4A[6] 4Ü[0] 5A[0] 6K[0] 6G[6]
!! 7K[0] 7G[0] 8A[0] MEHR[0] SI[23] ABS[71] SR[10] SP[13]
!! ST[16] 2k[6] 2g[18] 3k[0] 3g[0] 4d[10] 4ü[0] 5d[0] 6k[0] 6g[0]
!! 7k[0] 7g[0] 8d[0] mehr[0] si[34] dm[-11] sr[24] sp[10]
!! 1F[15] 2F[43] 3F[28] 4F[0] LF[0] 2P[15] 3P[0] 4P[0] TRI[0] DF[4] AB[75]
!! TF[0] U3K[0] U3[0] U4[0] U4Ü[0] U5[22] U6K[0] U6[19] U7K[0] U7[18]
!! N1[18] N2K[0] N2[11] N3K[0] N3[11] N4[0] N4Ü[0] N5[0] N6K[0] N6[0]
!!!n7k: 0] N7[0] O1[0] O2K[0] O2[0] O3K[0] O3[0] HÖ[0
